src/components/content/Icon/functional/user.svg

<svg width="100" height="100" viewBox="0 0 100 100" fill="none" xmlns="http://www.w3.org/2000/svg">
<path d="M49.8239 46.7259C50.0779 46.7259 50.3319 46.7179 50.5879 46.7019C55.2279 46.4899 59.1119 43.5839 60.7279 39.1159C62.3619 34.5939 61.1799 29.7859 57.6419 26.5679C55.3459 24.4799 52.0999 23.3599 49.1619 23.6439C46.0999 23.8339 43.1959 25.2419 41.1959 27.5059C38.0599 31.0539 37.4179 35.9239 39.5179 40.2139C41.5099 44.2819 45.4119 46.7279 49.8239 46.7279V46.7259ZM42.6959 28.8299C44.3519 26.9559 46.7599 25.7919 49.3039 25.6379C49.3159 25.6379 49.3299 25.6379 49.3419 25.6339C49.5799 25.6099 49.8199 25.5999 50.0639 25.5999C52.2419 25.5999 54.6199 26.5179 56.2979 28.0459C59.2259 30.7099 60.2039 34.6899 58.8499 38.4359C57.5119 42.1339 54.3059 44.5359 50.4819 44.7059H50.4619C50.2499 44.7199 50.0419 44.7259 49.8319 44.7259C46.1879 44.7259 42.9619 42.7019 41.3139 39.3339C39.5759 35.7839 40.1059 31.7599 42.6939 28.8299H42.6959ZM66.3839 55.3839C61.5039 50.9439 54.6059 48.5639 48.3779 49.1739C41.8559 49.5759 35.6759 52.5699 31.4199 57.3859C27.5439 61.7739 25.4219 67.0959 25.2839 72.7739C25.2767 73.0375 25.3228 73.2998 25.4194 73.5452C25.5159 73.7905 25.661 74.0139 25.8459 74.2019C26.0296 74.3917 26.2497 74.5424 26.493 74.6452C26.7363 74.7479 26.9978 74.8005 27.2619 74.7999H32.9519C33.5039 74.7999 33.9519 74.3519 33.9519 73.7999C33.9519 73.2479 33.5039 72.7999 32.9519 72.7999H27.2839C27.4139 67.6079 29.3619 62.7359 32.9179 58.7099C36.8299 54.2839 42.5159 51.5339 48.5179 51.1679C48.5299 51.1679 48.5419 51.1679 48.5559 51.1639C54.1579 50.6119 60.6259 52.8479 65.0379 56.8619C69.6779 61.0859 72.2899 66.7119 72.4579 72.7979H39.1619C38.6099 72.7979 38.1619 73.2459 38.1619 73.7979C38.1619 74.3499 38.6099 74.7979 39.1619 74.7979H73.4639C74.0099 74.7979 74.4559 74.3599 74.4639 73.8139C74.5739 66.7699 71.7039 60.2239 66.3839 55.3819V55.3839Z" fill="#0B301A"/>
</svg>

<svg xmlns="http://www.w3.org/2000/svg" width="100" height="100" fill="none" viewBox="0 0 100 100"><path fill="#0b301a" d="M49.824 46.726q.38 0 .764-.024c4.64-.212 8.524-3.118 10.14-7.586 1.634-4.522.452-9.33-3.086-12.548-2.296-2.088-5.542-3.208-8.48-2.924-3.062.19-5.966 1.598-7.966 3.862-3.136 3.548-3.778 8.418-1.678 12.708 1.992 4.068 5.894 6.514 10.306 6.514zM42.696 28.83c1.656-1.874 4.064-3.038 6.608-3.192q.019.001.038-.004.356-.035.722-.034c2.178 0 4.556.918 6.234 2.446 2.928 2.664 3.906 6.644 2.552 10.39-1.338 3.698-4.544 6.1-8.368 6.27h-.02a10 10 0 0 1-.63.02c-3.644 0-6.87-2.024-8.518-5.392-1.738-3.55-1.208-7.574 1.38-10.504zm23.688 26.554c-4.88-4.44-11.778-6.82-18.006-6.21-6.522.402-12.702 3.396-16.958 8.212-3.876 4.388-5.998 9.71-6.136 15.388a1.96 1.96 0 0 0 .562 1.428 1.96 1.96 0 0 0 1.416.598h5.69a1 1 0 0 0 0-2h-5.668c.13-5.192 2.078-10.064 5.634-14.09 3.912-4.426 9.598-7.176 15.6-7.542q.017.001.038-.004c5.602-.552 12.07 1.684 16.482 5.698 4.64 4.224 7.252 9.85 7.42 15.936H39.162a1 1 0 0 0 0 2h34.302a1 1 0 0 0 1-.984c.11-7.044-2.76-13.59-8.08-18.432z"/></svg>
